lib/radiotmp/nrk-new-chat-expressive.svg

<svg width="24" height="24" viewBox="0 0 24 24" fill="none" xmlns="http://www.w3.org/2000/svg">
<path opacity="0.5" d="M13 4C13 3.44772 12.5523 3 12 3H4C2.34315 3 1 4.34315 1 6V17C1 18.6569 2.34315 20 4 20H7.52853L6.74085 21.5459C6.40186 22.2112 6.88516 22.9999 7.63186 22.9999C8.0079 22.9999 8.35215 22.7889 8.52286 22.4539L9.77318 20H20C21.6569 20 23 18.6569 23 17V14C23 13.4477 22.5523 13 22 13C21.4477 13 21 13.4477 21 14V17C21 17.5523 20.5523 18 20 18H4C3.44772 18 3 17.5523 3 17V6C3 5.44772 3.44772 5 4 5H12C12.5523 5 13 4.55228 13 4Z" fill="black"/>
<path d="M20 4C20 3.44772 19.5523 3 19 3C18.4477 3 18 3.44772 18 4V6H16C15.4477 6 15 6.44772 15 7C15 7.55228 15.4477 8 16 8H18V10C18 10.5523 18.4477 11 19 11C19.5523 11 20 10.5523 20 10V8H22C22.5523 8 23 7.55228 23 7C23 6.44772 22.5523 6 22 6H20V4Z" fill="black"/>
</svg>

<svg xmlns="http://www.w3.org/2000/svg" viewBox="0 0 24 24"><path fill="#000" d="M13 4a1 1 0 0 0-1-1H4a3 3 0 0 0-3 3v11a3 3 0 0 0 3 3h3.529l-.788 1.546a1 1 0 0 0 1.782.908L9.773 20H20a3 3 0 0 0 3-3v-3a1 1 0 1 0-2 0v3a1 1 0 0 1-1 1H4a1 1 0 0 1-1-1V6a1 1 0 0 1 1-1h8a1 1 0 0 0 1-1Z" opacity=".5"/><path fill="#000" d="M20 4a1 1 0 1 0-2 0v2h-2a1 1 0 1 0 0 2h2v2a1 1 0 1 0 2 0V8h2a1 1 0 1 0 0-2h-2V4Z"/></svg>
